X:1
T:There Are Coming Changes Great
T:There Are Coming Changes Great
T:Frederic Field Bullard, 1903
T:Geoerge Matheson, 1890
T:Public Domain Courtesy of the Cyber Hymnal™
T:Public Domain Courtesy of the Cyber Hymnal™
C:Frederic Field Bullard, 1903
Z:Public Domain
Z:Courtesy of the Cyber Hymnal™
%%score ( 1 2 ) ( 3 4 )
L:1/8
Q:1/4=110
M:4/4
K:Ab
V:1 treble 
V:2 treble 
V:3 bass 
V:4 bass 
V:1
 A2 [GA]2 [FA]2 [EA]2 | [Fd]2 [Ed]2 [Ec]4 | E3 F !>![FA]4 | !>![EGB]4 !>![EA]4 | %4
w: 1.~There are com- ing|chang- es great|In the glad|new time;|
w: 2.~There shall meet the|great and small|In the glad|new time,|
w: 3.~We shall lift op-|pres- sion’s load|In the glad|new time;|
w: 4.~There shall be a|joy in Heav’n|In the glad|new time;|
 A2 [GA]2 [FA]2 [EA]2 | [Fd]2 [Ed]2 [Ec]4 | [EB]3 [EB] !>![Ec]4 | !>![Ec]4 !>![EB]4 | %8
w: Trust in God and|watch and wait|For the glad|new time;|
w: Love shall be the|lord of all|In the glad|new time;|
w: We shall bear the|cross of God|In the glad|new time;|
w: And God’s rest- ing|shall be giv’n|In the glad|new time:|
 [EF]2 [EG]2 [EB]2 [EA]2 | [EG]2 [=DF]2 E4 | [EF]2 [EG]2 [EB]2 [EA]2 | [Fd]2 [Ed]2 [Ec]4 | %12
w: Moun- tain fears shall|pros- trate lie,|Vales of hope be|lifte- d high;|
w: From the moun- tains|shall des- cend|Hearts of old that|could not bend,|
w: We shall seek the|val- leys deep|Where the wea- ry|strive or sleep,|
w: For His Sab- bath|shall be found|When the skies have|touched the ground,|
 [EB]3 [EA] [EB]2 [Ec]2 | [Ce]2 [Dd]2 [DF]4 | E3 F !>![FA]4 | !>![EGB]4 !>![EA]4 |] %16
w: Trem- bling earth em-|brace the sky,|In the glad|new time.|
w: And the poor shall|have a friend,|In the glad|new time.|
w: And con- vey them|up the steep|To the glad|new time.|
w: And the val- leys|shall re- sound|With the glad|new time.|
V:2
 A2 x6 | x8 | E3 F x4 | x8 | A2 x6 | x8 | x8 | x8 | x8 | x4 E4 | x8 | x8 | x8 | x8 | E3 F x4 | %15
 x8 |] %16
V:3
 [A,C]2 [A,E]2 [A,D]2 [A,C]2 | [A,B,]2 [G,B,]2 A,4 | [E,C]3 [E,C] !>![E,D]4 | %3
 !>![E,D]4 !>![A,,C]4 | [A,C]2 [A,E]2 [A,D]2 [A,C]2 | [A,B,]2 [G,B,]2 A,4 | %6
 [E,G,]3 [D,G,] !>![C,G,]4 | !>![A,,A,]4 !>![E,G,]4 | [E,C]2 [D,B,]2 [C,G,]2 [C,A,]2 | %9
 [B,,B,]2 [E,G,]2 [E,G,]4 | [E,C]2 [D,B,]2 [C,G,]2 [C,A,]2 | [B,,A,]2 [E,G,]2 A,4 | %12
 [_G,B,]3 [G,C] [G,B,]2 [G,A,]2 | [F,A,]2 [F,A,]2 (A,2 B,2) | [E,C]3 [E,C] !>![E,D]4 | %15
 !>![E,D]4 !>![A,,C]4 |] %16
V:4
 x8 | x4 A,4 | x8 | x8 | x8 | x4 A,4 | x8 | x8 | x8 | x8 | x8 | x4 A,4 | x8 | x4 B,,4 | x8 | x8 |] %16

